public/images/icons/48x48/coinlecture_48_bicolore.svg

<svg height="48" viewBox="0 0 48 48" width="48" xmlns="http://www.w3.org/2000/svg"><g fill="none" fill-rule="nonzero"><g fill="#1e1169" transform="translate(8 13)"><path d="m1.27285697 26.8081395h8.35775397c1.42891056.0030885 2.78866726.6376054 3.73775456 1.7441861l.1178572.1290697c.1523645.1629808.316738.3134348.4916326.45.0707142.0523256.1380612.1046512.2020407.1465117.1543612.1060509.3152102.2016009.4815306.2860465l.0841837.0418605c.087551.0453488.1784693.0837209.2693877.1186046.1158049.0448351.2338285.0832614.3535714.1151163.0808163.0244186.1885714.0558139.3165305.0802325.1822472.0374773.3667623.0619534.5522448.0732559l.2626553.0069767c.2782273-.0005679.5557135-.0297813.828365-.0872093.1077551-.0209302.1986734-.0453488.2458163-.0627907.1392883-.0359549.2764555-.0802146.4108163-.1325581h.0404081l.2121429-.0941861.0606122-.0313953h.0202041c.1796347-.0895174.3529252-.1920995.5185713-.3069768l.175102-.1255814c.1864699-.1555188.3599421-.3270573.5185714-.5127907l.0404082-.0418604.0707142-.0802326c.9389309-1.096953 2.2888834-1.7211796 3.7040812-1.7127907h8.3813254c.3381669.0000012.6624344-.1394015.9012384-.3874429.238804-.2480413.3725132-.5843304.371623-.9346501v-20.70000002c-.0092168-.72142467-.5764049-1.30122591-1.2728614-1.30116279h-2.5120405v-2.60930232c.0017955-.2324999-.0861044-.45611672-.2441745-.62117794-.15807-.16506122-.3732214-.25789183-.5976621-.25789183h-5.2395912c-2.4619861.00490244-4.8313301.97299732-6.6336703 2.71046512-1.8023446-1.7374678-4.1716887-2.70556268-6.6336748-2.71046512h-5.23959113c-.46493353 0-.84183662.39044935-.84183662.87209302v2.61627907h-2.51204048c-.69645649-.00006312-1.26364459.57973812-1.27285697 1.30116279v20.70000002c0 .3497157.13410419.6851079.37281118.9323943.23870698.2472863.56246313.3862103.90004579.3862103zm21.86081333-25.06395345h4.3977546v19.38139535h-4.3977546c-2.0855371.0014235-4.1156234.6959189-5.7918359 1.9813953v-18.80581391c1.51602-1.63069787 3.6063916-2.55355404 5.7918359-2.55697674zm-17.66509961 0h4.39775451c2.1844519.00159556 4.2746781.92186971 5.7918359 2.55v18.81279065c-1.6762125-1.2854764-3.7062988-1.9799718-5.7918359-1.9813953h-4.39775451zm-3.78489745 3.48837209h2.10122421v16.77906976c0 .4816437.37690309.872093.84183662.872093h5.23959113c2.2934981.0027031 4.4772168 1.0177132 6.0039788 2.7906977.1597195.1853501.3881715.2913262.6280101.2913262s.4682906-.1059761.6280101-.2913262c1.526762-1.7729845 3.7104806-2.7879946 6.0039788-2.7906977h5.2429585c.4649335 0 .8418366-.3904493.8418366-.872093v-16.77906976h2.1012242v19.84883716h-7.9469377c-1.9063638-.0129145-3.7249029.8291795-4.9870401 2.3093024l-.0269388.0313953-.0303061.0313954c-.1039658.107452-.2166221.2054845-.3367347.2930232l-.1010204.0732558c-.0968892.067587-.1981482.1281949-.3030612.1813954h-.020204l-.0505102.0244186-.1346939.0593023c-.0826374.0317128-.1669589.0585008-.252551.0802326l-.1447959.0348837c-.1583991.034635-.3196593.0533266-.4815305.055814h-.1481633c-.1131137-.0071233-.2256226-.0222752-.3367346-.0453489-.0707143 0-.1279592-.0313953-.1953061-.0523256-.0707157-.0180979-.1404135-.0402245-.2087755-.066279l-.1481632-.0662791-.0639796-.0313954c-.1023793-.0513083-.2013709-.109575-.2963265-.1744186l-.1178571-.0837209c-.1078977-.0846852-.2092278-.1779937-.3030612-.2790698l-.0639796-.0697674c-1.26759-1.4741404-3.0813415-2.3190922-4.98704016-2.3232558h-7.9469377z"/><path d="m7.8454187 5.95363951h1.40339505c1.23632905.00260988 2.45567415.33211172 3.56428525.96317157.4143317.21084545.899158.00774698 1.0995152-.46059759.2003572-.46834458.0450715-1.0355635-.3521651-1.28636947-1.3448068-.76738109-2.8247061-1.16765543-4.32516205-1.16984402h-1.38986835c-.46691185 0-.8454187.43646417-.8454187.97487001s.37850685.97487002.8454187.97487002zm0 4h1.40339505c1.23632905.00260988 2.45567415.33211169 3.56428525.96317159.4143317.2108454.899158.007747 1.0995152-.4605976.2003572-.46834459.0450715-1.03556351-.3521651-1.28636948-1.3448068-.76738109-2.8247061-1.16765543-4.32516205-1.16984402h-1.38986835c-.46691185 0-.8454187.43646417-.8454187.97487001s.37850685.97487002.8454187.97487002zm0 3.99999999h1.40339505c1.23632905.0026099 2.45567415.3321117 3.56428525.9631716.4143317.2108454.899158.007747 1.0995152-.4605976s.0450715-1.0355635-.3521651-1.2863695c-1.3448068-.7673811-2.8247061-1.1676554-4.32516205-1.169844h-1.38986835c-.46691185 0-.8454187.4364642-.8454187.97487 0 .5384059.37850685.97487.8454187.97487zm4.9145678 4.9280176c.2699885.1699628.5993021.1559956.8576648-.0363763s.404151-.5321565.3796913-.8849354c-.0244597-.3527788-.2152269-.6617176-.4968342-.8046006-1.332479-.7582631-2.7988838-1.1537205-4.28564447-1.1557448h-1.37716955c-.46264583 0-.83769438.4312038-.83769438.9631207 0 .5319168.37504855.9631207.83769438.9631207h1.39057266c1.22529636.0037765 2.43351416.3306287 3.53171946.9554157zm7.0915784-11.8816571c.1279805-.00046501.254155-.03498939.368772-.10090486 1.1041969-.63069423 2.3189812-.95869409 3.5502687-.95859622h1.3912762c.4628799 0 .8381182-.43439083.8381182-.97023908s-.3752383-.97025984-.8381182-.97025984h-1.3912762c-1.1438052-.00252983-2.2789153.23005679-3.3524728.68695002-.3243657.1382559-.6421783.29630282-.9521023.47347668-.3487632.20009304-.5326228.65182144-.4438716 1.09055724.0887512.43873579.4267515.74901606.8159961.74901606zm0 4c.1279805-.000465.254155-.0349894.368772-.1009049 1.1041969-.6306942 2.3189812-.95869405 3.5502687-.95859618h1.3912762c.4628799 0 .8381182-.43439083.8381182-.97023908s-.3752383-.97025984-.8381182-.97025984h-1.3912762c-1.1438052-.00252983-2.2789153.23005679-3.3524728.68695002-.3243657.1382559-.6421783.29630282-.9521023.47347668-.3487632.20009304-.5326228.65182144-.4438716 1.0905572.0887512.4387358.4267515.7490161.8159961.7490161zm0 4c.1279805-.000465.254155-.0349894.368772-.1009049 1.1041969-.6306942 2.3189812-.958694 3.5502687-.9585962h1.3912762c.4628799 0 .8381182-.4343908.8381182-.9702391 0-.5358482-.3752383-.9702598-.8381182-.9702598h-1.3912762c-1.1438052-.0025298-2.2789153.2300568-3.3524728.68695-.3243657.1382559-.6421783.2963028-.9521023.4734767-.3487632.200093-.5326228.6518214-.4438716 1.0905572s.4267515.7490161.8159961.7490161zm0 3.996119c.1279805-.000465.254155-.0349893.368772-.1009047 1.104515-.6292198 2.319259-.9558806 3.5502687-.9547144h1.3912762c.4628799 0 .8381182-.4343904.8381182-.9702382s-.3752383-.9702617-.8381182-.9702617h-1.3912762c-1.1438176-.0026917-2.2789525.2298998-3.3524728.6869521-.3243657.1382558-.6421783.2963026-.9521023.4734763-.3487632.2000928-.5326228.6518208-.4438716 1.0905562s.4267515.7490154.8159961.7490154z"/></g><g fill="#28dcf0"><path d="m40.5980762 10.0979216c.1111117.5774562.407405.86618.8888889.86618h.1319444c.6527811-.1622068.9791667-.4995919.9791667-1.01216543v-.12165451c-.1250006-.57745625-.3796277-.86618004-.7638889-.86618004h-.2152778c-.4351873 0-.7754617.31792058-1.0208333.95377128zm.0316395-1.67500812c.0842693-.04419047.1720484-.08838028.26334-.13257074.3019647-.1167891.6197251-.17518277.9532907-.17518277 1.1832802 0 1.9978704.62970473 2.443795 1.88913303.0386234.2903946.0579348.4639974.0579348.5208137 0 .7007346-.3458497 1.3115008-1.0375595 1.832317-.5617948.3093333-1.0129794.4639976-1.3535675.4639976h-.3423419c-.3757003 0-.7584172-.1120527-1.1481623-.3361615-.1053366.3819319-.3792074.5634258-.8216208.544487l-.4634783-.0189387c-.5758396-.0220952-.8532216-.3456277-.8321543-.9706072.0245785-.8206801.0737348-1.960935.1474703-3.42079864.0737356-1.45986369.3195171-2.31446297.737352-2.56382347.3195207-.04734693.6416701-.02604113.9664577.06391804s.4836678.2911806.4766453.60367034c-.017556.60288425-.0333563 1.16946069-.0474012 1.69974631z" transform="matrix(.8660254 .5 -.5 .8660254 10.305082 -19.397088)"/><path d="m5.69448807 10.0265153c.3144547.0319012.65396953.148111 1.01855469.3486328.36458515.2005218.46940181.5821912.31445312 1.1450195-.15494869.5628284-.48079178.7986659-.97753906.7075196-.49674727-.0911463-.93310359-.108236-1.30908203-.0512696-.37597844.0569665-.65397045.1538079-.83398438.2905274-.18001392.1367194-.33723891.3714176-.47167968.7041015-.13444078.332684-.07177865.7542293.18798828 1.2646485.24153766.2552096.49560413.4226884.76220703.5024414s.60953566.0740564 1.02880859-.0170899c.3144547-.0683597.59814327-.2529281.85107422-.5537109.25293095-.3007827.62548582-.3509125 1.11767578-.1503906.49218996.2005218.61067836.522947.35546875.9672851-.25520961.4443382-.45344981.732584-.59472656.8647461-.10026092.0911463-.20052033.1708981-.30078125.2392578-.27343887.1959646-.55826675.3235675-.85449219.3828125-.29622544.0592451-.59700368.0911459-.90234375.0957032-.40104367.0091146-.79524546-.0387365-1.18261718-.1435547-.30989739-.0820317-.61181494-.2027987-.90576172-.3623047s-.55940637-.3668607-.79638672-.6220703c-.45117413-.4648461-.78613172-1.0003225-1.00488281-1.6064453-.3463559-.9342495-.23470337-1.759111.33496093-2.4746094.2825535-.3600278.62092902-.6448557 1.01513672-.8544922s.78271293-.3691401 1.16552735-.4785156c.32356932-.0911463.65624829-.1560871.99804687-.1948242.34179859-.03873721.6699203-.03987652.984375-.003418z" transform="matrix(.91354546 -.40673664 .40673664 .91354546 -5.060337 2.960985)"/><path d="m21.6437392 5.96010205c.1093756.565107.3987607.84765625.8681641.84765625h.1230469c.638024-.15494869.9570312-.48534903.9570312-.99121093v-.11621094c-.1230475-.56966431-.3714174-.85449219-.7451172-.85449219h-.211914c-.4192729 0-.7496733.31217136-.991211.93652344zm4.4091797-1.34667968c.1048183.70638374.169759 1.46174728.1948242 2.26611328.0250653.804366-.1765929 1.24869749-.6049804 1.33300781-.4283876.08431032-.8146142.10595724-1.1586914.06494141-.3440773-.04101583-.6163727-.24381329-.8168946-.60839844-.7793007.32356932-1.3307275.48535156-1.6542968.48535156h-.3417969c-.6699252 0-1.2692031-.32356447-1.7978516-.97070312-.30534-.42838756-.4580078-.9160129-.4580078-1.46289063.0546878-.62890939.3133115-1.11653473.7758789-1.46289062.4625674-.3463559 1.0458949-.54459611 1.75-.59472657s1.3045223.06152207 1.8012696.33496094c.0319012-.30078275-.0979804-.56054578-.3896485-.77929687-.2916681-.2187511-.6539692-.30306015-1.086914-.25292969-.4329449.05013046-.8590474.17659404-1.2783204.37939453-.4192729.20280049-.7918278.13102387-1.1176757-.21533203-.325848-.3463559-.2540714-.70068178.215332-1.06298828s1.1712193-.58219363 2.1054687-.65966797c.9342495-.07747435 1.6770806.00797402 2.2285157.25634765.551435.24837364.935383.62548576 1.1518554 1.13134766.2164725.5058619.3771154 1.11197564.4819336 1.81835938z" transform="matrix(.77714596 -.62932039 .62932039 .77714596 2.043145 15.447663)"/></g></g></svg>

<svg xmlns="http://www.w3.org/2000/svg" width="48" height="48" viewBox="0 0 48 48">
  <g fill="none" fill-rule="evenodd">
    <g fill="#1E1169" fill-rule="nonzero" transform="translate(8 13)">
      <path d="M1.27285697,26.8081395 L9.63061094,26.8081395 C11.0595215,26.811228 12.4192782,27.4457449 13.3683655,28.5523256 L13.4862227,28.6813953 C13.6385872,28.8443761 13.8029607,28.9948301 13.9778553,29.1313953 C14.0485695,29.1837209 14.1159165,29.2360465 14.179896,29.277907 C14.3342572,29.3839579 14.4951062,29.4795079 14.6614266,29.5639535 L14.7456103,29.605814 C14.8331613,29.6511628 14.9240796,29.6895349 15.014998,29.7244186 C15.1308029,29.7692537 15.2488265,29.80768 15.3685694,29.8395349 C15.4493857,29.8639535 15.5571408,29.8953488 15.6850999,29.9197674 C15.8673471,29.9572447 16.0518622,29.9817208 16.2373447,29.9930233 L16.5,30 C16.7782273,29.9994321 17.0557135,29.9702187 17.328365,29.9127907 C17.4361201,29.8918605 17.5270384,29.8674419 17.5741813,29.85 C17.7134696,29.8140451 17.8506368,29.7697854 17.9849976,29.7174419 L18.0254057,29.7174419 L18.2375486,29.6232558 L18.2981608,29.5918605 L18.3183649,29.5918605 C18.4979996,29.5023431 18.6712901,29.399761 18.8369362,29.2848837 L19.0120382,29.1593023 C19.1985081,29.0037835 19.3719803,28.832245 19.5306096,28.6465116 L19.5710178,28.6046512 L19.641732,28.5244186 C20.5806629,27.4274656 21.9306154,26.803239 23.3458132,26.8116279 L31.7271386,26.8116279 C32.0653055,26.8116291 32.389573,26.6722264 32.628377,26.424185 C32.867181,26.1761437 33.0008902,25.8398546 33,25.4895349 L33,4.78953488 C32.9907832,4.06811021 32.4235951,3.48830897 31.7271386,3.48837209 L29.2150981,3.48837209 L29.2150981,0.879069767 C29.2168936,0.646569868 29.1289937,0.422953047 28.9709236,0.257891831 C28.8128536,0.0928306147 28.5977022,0 28.3732615,0 L23.1336703,0 C20.6716842,0.00490244134 18.3023402,0.972997323 16.5,2.71046512 C14.6976554,0.972997323 12.3283113,0.00490244134 9.8663252,0 L4.62673407,0 C4.16180054,0 3.78489745,0.390449346 3.78489745,0.872093023 L3.78489745,3.48837209 L1.27285697,3.48837209 C0.576400482,3.48830897 0.00921238479,4.06811021 0,4.78953488 L0,25.4895349 C0,25.8392506 0.134104189,26.1746428 0.372811175,26.4219292 C0.611518162,26.6692155 0.935274313,26.8081395 1.27285697,26.8081395 Z M23.1336703,1.74418605 L27.5314249,1.74418605 L27.5314249,21.1255814 L23.1336703,21.1255814 C21.0481332,21.1270049 19.0180469,21.8215003 17.3418344,23.1069767 L17.3418344,4.30116279 C18.8578544,2.67046492 20.948226,1.74760875 23.1336703,1.74418605 Z M5.46857069,1.74418605 L9.8663252,1.74418605 C12.0507771,1.74578161 14.1410033,2.66605576 15.6581611,4.29418605 C15.6581611,4.29418605 15.6581611,4.29418605 15.6581611,4.29418605 L15.6581611,23.1069767 C13.9819486,21.8215003 11.9518623,21.1270049 9.8663252,21.1255814 L5.46857069,21.1255814 L5.46857069,1.74418605 Z M1.68367324,5.23255814 L3.78489745,5.23255814 L3.78489745,22.0116279 C3.78489745,22.4932716 4.16180054,22.8837209 4.62673407,22.8837209 L9.8663252,22.8837209 C12.1598233,22.886424 14.343542,23.9014341 15.870304,25.6744186 C16.0300235,25.8597687 16.2584755,25.9657448 16.4983141,25.9657448 C16.7381527,25.9657448 16.9666047,25.8597687 17.1263242,25.6744186 C18.6530862,23.9014341 20.8368048,22.886424 23.130303,22.8837209 L28.3732615,22.8837209 C28.838195,22.8837209 29.2150981,22.4932716 29.2150981,22.0116279 L29.2150981,5.23255814 L31.3163223,5.23255814 L31.3163223,25.0813953 L23.3693846,25.0813953 C21.4630208,25.0684808 19.6444817,25.9105748 18.3823445,27.3906977 L18.3554057,27.422093 L18.3250996,27.4534884 C18.2211338,27.5609404 18.1084775,27.6589729 17.9883649,27.7465116 L17.8873445,27.8197674 C17.7904553,27.8873544 17.6891963,27.9479623 17.5842833,28.0011628 L17.5640793,28.0011628 L17.5135691,28.0255814 L17.3788752,28.0848837 C17.2962378,28.1165965 17.2119163,28.1433845 17.1263242,28.1651163 L16.9815283,28.2 C16.8231292,28.234635 16.661869,28.2533266 16.4999978,28.255814 L16.3518345,28.255814 C16.2387208,28.2486907 16.1262119,28.2335388 16.0150999,28.2104651 C15.9443856,28.2104651 15.8871407,28.1790698 15.8197938,28.1581395 C15.7490781,28.1400416 15.6793803,28.117915 15.6110183,28.0918605 L15.4628551,28.0255814 L15.3988755,27.994186 C15.2964962,27.9428777 15.1975046,27.884611 15.102549,27.8197674 L14.9846919,27.7360465 C14.8767942,27.6513613 14.7754641,27.5580528 14.6816307,27.4569767 L14.6176511,27.3872093 C13.3500611,25.9130689 11.5363096,25.0681171 9.63061094,25.0639535 L1.68367324,25.0639535 L1.68367324,5.23255814 Z"/>
      <path d="M7.8454187 5.95363951L9.24881375 5.95363951C10.4851428 5.95624939 11.7044879 6.28575123 12.813099 6.91681108 13.2274307 7.12765653 13.712257 6.92455806 13.9126142 6.45621349 14.1129714 5.98786891 13.9576857 5.42064999 13.5604491 5.16984402 12.2156423 4.40246293 10.735743 4.00218859 9.23528705 4L7.8454187 4C7.37850685 4 7 4.43646417 7 4.97487001 7 5.51327585 7.37850685 5.94974003 7.8454187 5.94974003L7.8454187 5.95363951zM7.8454187 9.95363951L9.24881375 9.95363951C10.4851428 9.95624939 11.7044879 10.2857512 12.813099 10.9168111 13.2274307 11.1276565 13.712257 10.9245581 13.9126142 10.4562135 14.1129714 9.98786891 13.9576857 9.42064999 13.5604491 9.16984402 12.2156423 8.40246293 10.735743 8.00218859 9.23528705 8L7.8454187 8C7.37850685 8 7 8.43646417 7 8.97487001 7 9.51327585 7.37850685 9.94974003 7.8454187 9.94974003L7.8454187 9.95363951zM7.8454187 13.9536395L9.24881375 13.9536395C10.4851428 13.9562494 11.7044879 14.2857512 12.813099 14.9168111 13.2274307 15.1276565 13.712257 14.9245581 13.9126142 14.4562135 14.1129714 13.9878689 13.9576857 13.42065 13.5604491 13.169844 12.2156423 12.4024629 10.735743 12.0021886 9.23528705 12L7.8454187 12C7.37850685 12 7 12.4364642 7 12.97487 7 13.5132759 7.37850685 13.94974 7.8454187 13.94974L7.8454187 13.9536395zM12.7599865 18.8816571C13.029975 19.0516199 13.3592886 19.0376527 13.6176513 18.8452808 13.876014 18.6529089 14.0218023 18.3131243 13.9973426 17.9603454 13.9728829 17.6075666 13.7821157 17.2986278 13.5005084 17.1557448 12.1680294 16.3974817 10.7016246 16.0020243 9.21486393 16L7.83769438 16C7.37504855 16 7 16.4312038 7 16.9631207 7 17.4950375 7.37504855 17.9262414 7.83769438 17.9262414L9.22826704 17.9262414C10.4535634 17.9300179 11.6617812 18.2568701 12.7599865 18.8816571zM19.8515649 7C19.9795454 6.99953499 20.1057199 6.96501061 20.2203369 6.89909514 21.3245338 6.26840091 22.5393181 5.94040105 23.7706056 5.94049892L25.1618818 5.94049892C25.6247617 5.94049892 26 5.50610809 26 4.97025984 26 4.43441159 25.6247617 4 25.1618818 4L23.7706056 4C22.6268004 3.99747017 21.4916903 4.23005679 20.4181328 4.68695002 20.0937671 4.82520592 19.7759545 4.98325284 19.4660305 5.1604267 19.1172673 5.36051974 18.9334077 5.81224814 19.0221589 6.25098394 19.1109101 6.68971973 19.4489104 7 19.838155 7L19.8515649 7zM19.8515649 11C19.9795454 10.999535 20.1057199 10.9650106 20.2203369 10.8990951 21.3245338 10.2684009 22.5393181 9.94040105 23.7706056 9.94049892L25.1618818 9.94049892C25.6247617 9.94049892 26 9.50610809 26 8.97025984 26 8.43441159 25.6247617 8 25.1618818 8L23.7706056 8C22.6268004 7.99747017 21.4916903 8.23005679 20.4181328 8.68695002 20.0937671 8.82520592 19.7759545 8.98325284 19.4660305 9.1604267 19.1172673 9.36051974 18.9334077 9.81224814 19.0221589 10.2509839 19.1109101 10.6897197 19.4489104 11 19.838155 11L19.8515649 11zM19.8515649 15C19.9795454 14.999535 20.1057199 14.9650106 20.2203369 14.8990951 21.3245338 14.2684009 22.5393181 13.9404011 23.7706056 13.9404989L25.1618818 13.9404989C25.6247617 13.9404989 26 13.5061081 26 12.9702598 26 12.4344116 25.6247617 12 25.1618818 12L23.7706056 12C22.6268004 11.9974702 21.4916903 12.2300568 20.4181328 12.68695 20.0937671 12.8252059 19.7759545 12.9832528 19.4660305 13.1604267 19.1172673 13.3605197 18.9334077 13.8122481 19.0221589 14.2509839 19.1109101 14.6897197 19.4489104 15 19.838155 15L19.8515649 15zM19.8515649 18.996119C19.9795454 18.995654 20.1057199 18.9611297 20.2203369 18.8952143 21.3248519 18.2659945 22.5395959 17.9393337 23.7706056 17.9404999L25.1618818 17.9404999C25.6247617 17.9404999 26 17.5061095 26 16.9702617 26 16.4344139 25.6247617 16 25.1618818 16L23.7706056 16C22.626788 15.9973083 21.4916531 16.2298998 20.4181328 16.6869521 20.0937671 16.8252079 19.7759545 16.9832547 19.4660305 17.1604284 19.1172673 17.3605212 18.9334077 17.8122492 19.0221589 18.2509846 19.1109101 18.68972 19.4489104 19 19.838155 19L19.8515649 18.996119z"/>
    </g>
    <path fill="#28DCF0" fill-rule="nonzero" d="M40.5980762,10.0979216 C40.7091879,10.6753778 41.0054812,10.9641016 41.4869651,10.9641016 L41.6189095,10.9641016 C42.2716906,10.8018948 42.5980762,10.4645097 42.5980762,9.95193617 L42.5980762,9.83028166 C42.4730756,9.25282541 42.2184485,8.96410162 41.8341873,8.96410162 L41.6189095,8.96410162 C41.1837222,8.96410162 40.8434478,9.2820222 40.5980762,9.9178729 L40.5980762,10.0979216 Z M40.6297157,8.42291348 C40.713985,8.37872301 40.8017641,8.3345332 40.8930557,8.29034274 C41.1950204,8.17355364 41.5127808,8.11515997 41.8463464,8.11515997 C43.0296266,8.11515997 43.8442168,8.7448647 44.2901414,10.004293 C44.3287648,10.2946876 44.3480762,10.4682904 44.3480762,10.5251067 C44.3480762,11.2258413 44.0022265,11.8366075 43.3105167,12.3574237 C42.7487219,12.666757 42.2975373,12.8214213 41.9569492,12.8214213 L41.6146073,12.8214213 C41.238907,12.8214213 40.8561901,12.7093686 40.466445,12.4852598 C40.3611084,12.8671917 40.0872376,13.0486856 39.6448242,13.0297468 L39.1813459,13.0108081 C38.6055063,12.9887129 38.3281243,12.6651804 38.3491916,12.0402009 C38.3737701,11.2195208 38.4229264,10.0792659 38.4966619,8.61940226 C38.5703975,7.15953857 38.816179,6.30493929 39.2340139,6.05557879 C39.5535346,6.00823186 39.875684,6.02953766 40.2004716,6.11949683 C40.5252592,6.209456 40.6841394,6.41067743 40.6771169,6.72316717 C40.6595609,7.32605142 40.6437606,7.89262786 40.6297157,8.42291348 Z" transform="rotate(30 41.348 9.531)"/>
    <path fill="#28DCF0" fill-rule="nonzero" d="M5.69448807,10.0265153 C6.00894277,10.0584165 6.3484576,10.1746263 6.71304276,10.3751481 C7.07762791,10.5756699 7.18244457,10.9573393 7.02749588,11.5201676 C6.87254719,12.082996 6.5467041,12.3188335 6.04995682,12.2276872 C5.55320955,12.1365409 5.11685323,12.1194512 4.74087479,12.1764176 C4.36489635,12.2333841 4.08690434,12.3302255 3.90689041,12.466945 C3.72687649,12.6036644 3.5696515,12.8383626 3.43521073,13.1710465 C3.30076995,13.5037305 3.36343208,13.9252758 3.62319901,14.435695 C3.86473667,14.6909046 4.11880314,14.8583834 4.38540604,14.9381364 C4.65200894,15.0178894 4.9949417,15.0121928 5.41421463,14.9210465 C5.72866933,14.8526868 6.0123579,14.6681184 6.26528885,14.3673356 C6.5182198,14.0665529 6.89077467,14.0164231 7.38296463,14.216945 C7.87515459,14.4174668 7.99364299,14.739892 7.73843338,15.1842301 C7.48322377,15.6285683 7.28498357,15.9168141 7.14370682,16.0489762 C7.0434459,16.1401225 6.94318649,16.2198743 6.84292557,16.288234 C6.5694867,16.4841986 6.28465882,16.6118015 5.98843338,16.6710465 C5.69220794,16.7302916 5.3914297,16.7621924 5.08608963,16.7667497 C4.68504596,16.7758643 4.29084417,16.7280132 3.90347245,16.623195 C3.59357506,16.5411633 3.29165751,16.4203963 2.99771073,16.2608903 C2.70376395,16.1013843 2.43830436,15.8940296 2.20132401,15.63882 C1.75014988,15.1739739 1.41519229,14.6384975 1.1964412,14.0323747 C0.850085298,13.0981252 0.961737827,12.2732637 1.53140213,11.5577653 C1.81395563,11.1977375 2.15233115,10.9129096 2.54653885,10.7032731 C2.94074655,10.4936366 3.32925178,10.334133 3.7120662,10.2247575 C4.03563552,10.1336112 4.36831449,10.0686704 4.71011307,10.0299333 C5.05191166,9.99119609 5.38003337,9.99005678 5.69448807,10.0265153 Z" transform="rotate(-24 4.435 13.384)"/>
    <path fill="#28DCF0" fill-rule="nonzero" d="M21.6437392,5.96010205 C21.7531148,6.52520905 22.0424999,6.8077583 22.5119033,6.8077583 L22.6349502,6.8077583 C23.2729742,6.65280961 23.5919814,6.32240927 23.5919814,5.81654737 L23.5919814,5.70033643 C23.4689339,5.13067212 23.220564,4.84584424 22.8468642,4.84584424 L22.6349502,4.84584424 C22.2156773,4.84584424 21.8852769,5.1580156 21.6437392,5.78236768 L21.6437392,5.96010205 Z M26.0529189,4.61342237 C26.1577372,5.31980611 26.2226779,6.07516965 26.2477431,6.87953565 C26.2728084,7.68390165 26.0711502,8.12823314 25.6427627,8.21254346 C25.2143751,8.29685378 24.8281485,8.3185007 24.4840713,8.27748487 C24.139994,8.23646904 23.8676986,8.03367158 23.6671767,7.66908643 C22.887876,7.99265575 22.3364492,8.15443799 22.0128799,8.15443799 L21.671083,8.15443799 C21.0011578,8.15443799 20.4018799,7.83087352 19.8732314,7.18373487 C19.5678914,6.75534731 19.4152236,6.26772197 19.4152236,5.72084424 C19.4699114,5.09193485 19.7285351,4.60430951 20.1911025,4.25795362 C20.6536699,3.91159772 21.2369974,3.71335751 21.9411025,3.66322705 C22.6452076,3.61309659 23.2456248,3.72474912 23.7423721,3.99818799 C23.7742733,3.69740524 23.6443917,3.43764221 23.3527236,3.21889112 C23.0610555,3.00014002 22.6987544,2.91583097 22.2658096,2.96596143 C21.8328647,3.01609189 21.4067622,3.14255547 20.9874892,3.34535596 C20.5682163,3.54815645 20.1956614,3.47637983 19.8698135,3.13002393 C19.5439655,2.78366803 19.6157421,2.42934215 20.0851455,2.06703565 C20.5545489,1.70472915 21.2563648,1.48484202 22.1906142,1.40736768 C23.1248637,1.32989333 23.8676948,1.4153417 24.4191299,1.66371533 C24.9705649,1.91208897 25.3545129,2.28920109 25.5709853,2.79506299 C25.7874578,3.30092489 25.9481007,3.90703863 26.0529189,4.61342237 Z" transform="rotate(-39 22.833 4.839)"/>
  </g>
</svg>
